src/topics/icons/100tb.svg

<svg height="190" preserveAspectRatio="xMidYMid" viewBox="0 0 512 190" width="512" xmlns="http://www.w3.org/2000/svg"><path d="m49.4427074 2.09729041-49.44225608 51.55143129 24.44657418 22.1734189 17.7324166-13.2884056v124.448859h52.7233624v-184.88530359zm413.7885816 127.39282859c-24.640642 15.924122-51.291169 18.096482-78.749561 9.19492-13.879637-4.498169-24.782056-14.266268-35.255721-24.1141-16.027926-15.0711254-28.943239-32.8757535-42.716063-49.8935779-14.355029-17.7384342-29.481817-34.5050231-49.028545-46.7644159-16.193411-10.15473085-33.420348-16.57703395-52.646638-16.80269463-30.154285-.35503948-55.344035 10.97613573-74.929878 33.90025253-5.059313 5.9243451-9.209965 12.3797451-12.27895 19.3601823-1.98431 4.5117093-6.730706 15.9903161-7.598748 22.2997889.726628-1.3509553 4.508701-10.8106512 5.226302-12.1661197 1.872984-4.2394121 3.748976-6.5802656 5.97399-9.5439426 3.953576-5.2624072 8.745104-9.7515504 14.896614-12.989029 26.349646-13.8676013 62.48394-8.8820046 84.705499 11.3507324 19.539207 17.789584 35.749166 38.6120476 53.588396 57.9496636 16.668802 18.067899 32.416909 37.057998 50.955687 53.289019 17.986661 15.748107 38.670719 24.897895 63.209062 24.648164 42.714559-.433268 79.796627-28.719083 90.857009-70.0872 1.251665-4.681707 2.698902-10.497735 2.16183-16.895967-4.033309 11.293565-9.367928 21.445287-18.370285 27.264324zm-232.399514-5.53982c-9.996769 7.349017-20.261321 14.243703-33.772378 10.995693-16.87942-4.058883-28.097764-14.32494-31.74745-31.300641-3.408981-15.8564243 1.37653-29.5856204 14.102288-40.1254788 5.728773-4.744892 12.080369-7.5084832 18.96302-8.708998 3.544377-.6198147 8.400595-.0601762 12.214261.0917687-12.6716-9.3784581-28.156436-13.1454871-43.472779-12.9288529-26.161595.3685791-42.29483 11.0558692-52.011779 35.3640382-3.912956 9.7906649-7.209107 19.9980499-6.031158 30.7109148 3.732428 25.067893 15.341918 46.010709 35.660406 61.298468 28.51298 21.451305 59.876806 26.051774 93.164766 12.70921 21.055646-8.439709 37.555955-26.373716 52.866281-42.317396l-35.072184-39.8938001c-6.793891 7.6679501-16.574025 18.0107311-24.863294 24.1050741zm208.078257-85.487037c0-7.0902587 1.712012-13.7758326 4.728344-19.6851338-21.443783-15.52545509-48.936776-21.72661071-75.030674-15.77969946-26.017172 5.9303628-46.466544 20.99396576-65.182841 39.11451876-1.951212 1.8895321-4.179236 4.7433875-4.179236 4.7433875l35.729609 43.3810101 3.4496-3.4887142c9.041471-9.9080085 18.415416-19.5031008 30.059507-26.4775203 4.761441-2.8523511 9.697392-5.5271824 15.344927-5.7062066 16.841809-.5370724 29.775175 6.6750431 37.748519 21.3490052 7.908655 14.5536098 6.511063 29.1132368-2.763591 42.8469468-5.035242 7.457333-12.369214 11.92391-20.508043 15.609701 18.328161 3.038898 36.09217 2.064044 53.173179-5.843107 20.17557-9.340848 30.026411-30.2686197 29.560046-46.7192837-23.378447-.661938-42.129346-19.8069905-42.129346-43.3449043z" fill="#919fa1"/><path d="m479.528955 20.2792231v8.3118352h-8.367498v29.2230587h-8.794749v-29.2230587h-8.557053v-8.3118352zm18.472734 29.204705c1.423167 0 2.531913-.4287553 3.321726-1.2336118.791317-.8048564 1.214054-1.8759925 1.214054-3.1637628 0-1.3404245-.422737-1.4126359-1.266708-2.1633337-.843971-.7522023-1.951213-1.1267991-3.269072-1.1267991h-5.272938v7.6875074zm-.738662-14.4979468v-.1068128c1.107242 0 2.056521-.3219425 2.795184-.9658277.738662-.6423807 1.107241-1.5013958 1.107241-2.5198776 0-1.0726405-.368579-1.9301511-1.107241-2.5740363-.738663-.6423807-1.687942-.9643233-2.795184-.9643233h-4.534276v7.1308777zm1.319363-14.692015.157962-.1609713c1.633783 0 3.163763.267784 4.534275.7506979 1.372017.4829138 2.531913 1.1794531 3.481193 2.0911223.949279.9116692 1.686437 1.9843096 2.214483 3.2179214.528046 1.2336117.791317 2.5198776.791317 3.9144607 0 .9643233.227165 2.2821817-.08876 3.0870381-.315925.8033521-.686008 1.5013958-1.159896 2.1437765-.475392.6438852-1.001933 1.1809576-1.582633 1.6097129-.580701.4287553-1.107242.6965393-1.58113.8575106v.0541586c.842467.2136254 1.30131.1835373 2.092627.7191054.789813.5370724 1.475821 1.1809575 2.056521 1.9843096.579196.8048564 1.054588 1.7165256 1.423167 2.7350075s.5807 2.0384682.5807 3.1096042c0 1.6623671-.264775 3.1637628-.791317 4.5583459-.528046 1.394583-1.317858 2.5740362-2.37395 3.5925181-1.054588 1.0184819-2.372446 1.8233383-4.007734 2.4130649-1.633783.5897266-3.532342.8575106-5.746825.8575106h-14.50246v-37.5348939z" fill="#3390da"/></svg>

<?xml version="1.0" encoding="UTF-8" standalone="no"?>
<svg width="512px" height="190px" viewBox="0 0 512 190" version="1.1" xmlns="http://www.w3.org/2000/svg" xmlns:xlink="http://www.w3.org/1999/xlink" preserveAspectRatio="xMidYMid">
	<g>
		<path d="M49.4427074,2.09729041 L0.00045132137,53.6487217 L24.4470255,75.8221406 L42.1794421,62.533735 L42.1794421,186.982594 L94.9028045,186.982594 L94.9028045,2.09729041 L49.4427074,2.09729041 Z M463.231289,129.490119 C438.590647,145.414241 411.94012,147.586601 384.481728,138.685039 C370.602091,134.18687 359.699672,124.418771 349.226007,114.570939 C333.198081,99.4998136 320.282768,81.6951855 306.509944,64.6773611 C292.154915,46.9389269 277.028127,30.172338 257.481399,17.9129452 C241.287988,7.75821435 224.061051,1.33591125 204.834761,1.11025057 C174.680476,0.755211092 149.490726,12.0863863 129.904883,35.0105031 C124.84557,40.9348482 120.694918,47.3902482 117.625933,54.3706854 C115.641623,58.8823947 110.895227,70.3610015 110.027185,76.6704743 C110.753813,75.319519 114.535886,65.8598231 115.253487,64.5043546 C117.126471,60.2649425 119.002463,57.924089 121.227477,54.960412 C125.181053,49.6980048 129.972581,45.2088616 136.124091,41.971383 C162.473737,28.1037817 198.608031,33.0893784 220.82959,53.3221154 C240.368797,71.1116994 256.578756,91.934163 274.417986,111.271779 C291.086788,129.339678 306.834895,148.329777 325.373673,164.560798 C343.360334,180.308905 364.044392,189.458693 388.582735,189.208962 C431.297294,188.775694 468.379362,160.489879 479.439744,119.121762 C480.691409,114.440055 482.138646,108.624027 481.601574,102.225795 C477.568265,113.51936 472.233646,123.671082 463.231289,129.490119 Z M230.831775,123.950299 C220.835006,131.299316 210.570454,138.194002 197.059397,134.945992 C180.179977,130.887109 168.961633,120.621052 165.311947,103.645351 C161.902966,87.7889267 166.688477,74.0597306 179.414235,63.5198722 C185.143008,58.7749802 191.494604,56.011389 198.377255,54.8108742 C201.921632,54.1910595 206.77785,54.750698 210.591516,54.9026429 C197.919916,45.5241848 182.43508,41.7571558 167.118737,41.97379 C140.957142,42.3423691 124.823907,53.0296592 115.106958,77.3378282 C111.194002,87.1284931 107.897851,97.3358781 109.0758,108.048743 C112.808228,133.116636 124.417718,154.059452 144.736206,169.347211 C173.249186,190.798516 204.613012,195.398985 237.900972,182.056421 C258.956618,173.616712 275.456927,155.682705 290.767253,139.739025 L255.695069,99.8452249 C248.901178,107.513175 239.121044,117.855956 230.831775,123.950299 Z M438.910032,38.463262 C438.910032,31.3730033 440.622044,24.6874294 443.638376,18.7781282 C422.194593,3.25267311 394.7016,-2.94848251 368.607702,2.99842874 C342.59053,8.92879154 322.141158,23.9923945 303.424861,42.1129475 C301.473649,44.0024796 299.245625,46.856335 299.245625,46.856335 L334.975234,90.2373451 L338.424834,86.7486309 C347.466305,76.8406224 356.84025,67.2455301 368.484341,60.2711106 C373.245782,57.4187595 378.181733,54.7439282 383.829268,54.564904 C400.671077,54.0278316 413.604443,61.2399471 421.577787,75.9139092 C429.486442,90.467519 428.08885,105.027146 418.814196,118.760856 C413.778954,126.218189 406.444982,130.684766 398.306153,134.370557 C416.634314,137.409455 434.398323,136.434601 451.479332,128.52745 C471.654902,119.186602 481.505743,98.2588303 481.039378,81.8081663 C457.660931,81.1462283 438.910032,62.0011758 438.910032,38.463262 Z" fill="#919FA1"></path>
		<path d="M479.528955,20.2792231 L479.528955,28.5910583 L471.161457,28.5910583 L471.161457,57.814117 L462.366708,57.814117 L462.366708,28.5910583 L453.809655,28.5910583 L453.809655,20.2792231 L479.528955,20.2792231 Z M498.001689,49.4839281 C499.424856,49.4839281 500.533602,49.0551728 501.323415,48.2503163 C502.114732,47.4454599 502.537469,46.3743238 502.537469,45.0865535 C502.537469,43.746129 502.114732,43.6739176 501.270761,42.9232198 C500.42679,42.1710175 499.319548,41.7964207 498.001689,41.7964207 L492.728751,41.7964207 L492.728751,49.4839281 L498.001689,49.4839281 Z M497.263027,34.9859813 L497.263027,34.8791685 C498.370269,34.8791685 499.319548,34.557226 500.058211,33.9133408 C500.796873,33.2709601 501.165452,32.411945 501.165452,31.3934632 C501.165452,30.3208227 500.796873,29.4633121 500.058211,28.8194269 C499.319548,28.1770462 498.370269,27.8551036 497.263027,27.8551036 L492.728751,27.8551036 L492.728751,34.9859813 L497.263027,34.9859813 Z M498.58239,20.2939663 L498.740352,20.132995 C500.374135,20.132995 501.904115,20.400779 503.274627,20.8836929 C504.646644,21.3666067 505.80654,22.063146 506.75582,22.9748152 C507.705099,23.8864844 508.442257,24.9591248 508.970303,26.1927366 C509.498349,27.4263483 509.76162,28.7126142 509.76162,30.1071973 C509.76162,31.0715206 509.988785,32.389379 509.67286,33.1942354 C509.356935,33.9975875 508.986852,34.6956312 508.512964,35.3380119 C508.037572,35.9818971 507.511031,36.5189695 506.930331,36.9477248 C506.34963,37.3764801 505.823089,37.6442641 505.349201,37.8052354 L505.349201,37.859394 C506.191668,38.0730194 506.650511,38.0429313 507.441828,38.5784994 C508.231641,39.1155718 508.917649,39.7594569 509.498349,40.562809 C510.077545,41.3676654 510.552937,42.2793346 510.921516,43.2978165 C511.290095,44.3162984 511.502216,45.3362847 511.502216,46.4074207 C511.502216,48.0697878 511.237441,49.5711835 510.710899,50.9657666 C510.182853,52.3603496 509.393041,53.5398028 508.336949,54.5582847 C507.282361,55.5767666 505.964503,56.381623 504.329215,56.9713496 C502.695432,57.5610762 500.796873,57.8288602 498.58239,57.8288602 L484.07993,57.8288602 L484.07993,20.2939663 L498.58239,20.2939663 Z" fill="#3390DA"></path>
	</g>
</svg>
